**kern	**kern
*staff1	*staff1
*head[head1]	*head[head1]
*solo[solo1]	*solo[solo1]
*solo[solo2]	*solo[solo2]
*solo[solo3]	*solo[solo3]
*solo[solo4]	*solo[solo4]
*solo[solo5]	*solo[solo5]
*clefG2	*clefG2
*k[]	*k[]
*A-:	*A-:
*M4/4	*M4/4
*>head1	*>head1
{8e-/L	.
8a-/	.
8dd-/J	.
=1	=1	!!Head
8cc/L	1A-:dom
8a-/	.
8e-/	.
8c/J	.
4f/	.
8r	.
8c/	.
=2	=2
8d-/L	2B-:min
8cc/	.
8b-/	.
[8e/J	.
8e/]	2E-:dom
4cc\	.
8b-\	.
=3	=3
12g/L	1A-:dom
12g#/	.
12a/J	.
8b-/L	.
8gn/J	.
8a-/L	.
8e-/	.
8f/	.
8g-/J}	.
=4	=4
4r	2E-:min
{8r	.
[8b\	.
8b/L]	.
[8a-/	.
8a-/]	2A-:dom
8b/J	.
=5	=5
2.b-\}	1D-:dom
4r	.
=6	=6
8r	1D-:min
{4a-/	.
8e/	.
8a-/L	.
8b-/	.
8a-/	.
[8g/J	.
=7	=7
8g/L]	1C:min
[8b-/J	.
4b-\]	.
8g/L	.
8e-/	.
8c/	.
8G/J	.
=8	=8
8G-/L	1C-:min
[8d/J	.
2d/_	.
8d/L]	.
8c/J	.
=9	=9
4d-/}	1B-:min
4r	.
8r	.
{4a-/	.
8f/	.
=10	=10
8a-/L	1E-:dom
8b-/	.
8a-/	.
8e/J	.
8a-/L	.
8b-/	.
8a-/	.
[8g/J	.
=11	=11
8g/L]	2C:min
8e-/	.
8f/	.
[8g-/J	.
4g-/]	2F:dom
8r	.
8en/	.
=12	=12
8f/L	2B-:min
8a-/	.
8b-/	.
8a-/J	.
8cc/L	2:E-:dom
8e-/	.
8a-/	.
8dd-/J	.
=13	=13
8f/L	1B-:min
8a-/	.
8b-/	.
8a-/J	.
8cc\L	.
[8cc\J	2E-:dom
4cc\]}	.
=14:|!	=14:|!	!!Chorus 1
4a-/}	1A-:dom
4r	.
8r	.
*>solo1	*>solo1
{8B/	.
12c/L	.
12e-/	.
12g/J	.
=15||	=15||
8b-/L	1D-:dom
8a/	.
8a-/	.
8f/J	.
8d-/L	.
8c/	.
8B-/	.
8A-/J	.
=16	=16
12G/L	1A-:dom
12B-/	.
12e/J	.
8e-/L	.
8c/J	.
12d-/L	.
12e-/	.
12d-/J	.
8c/L	.
8B-/J	.
=17	=17
8A-/L	2E-:min
8G/	.
8G-/	.
8A-/J	.
8f/L	2A-:dom
8e/	.
8e-/	.
8d/J	.
=18	=18
8d-/L	1D-:dom
8A-/	.
8B-/	.
[8Bn/J	.
4.B/]	.
[8a-/	.
=19	=19
8a-/L]	1D-:dom
8B-/J	.
[2Bn/	.
8B/L]	.
[8a-/J	.
=20	=20
8a-/L]	1A-:dom
8B/J	.
2c/}	.
4r	.
=21	=21
4r	2C:min
24g/LL	.
24a-/	.
24g/JJ	.
8f/	.
8e-/L	2F:dom
8d-/	.
8c/	.
8B-/J	.
=22	=22
8A/L	1B-:maj
8B-/	.
8c/	.
8A/J	.
8B-/	.
24cc\LL	.
24b-\	.
24a-\JJ	.
8f/L	.
8e-/J	.
=23	=23
8d-/L	1E-:dom
8c/	.
8B-/	.
8A-/J	.
8G/L	.
8B-/	.
8d-/	.
8e/J	.
=24	=24
8e-/L	1A-:dom
8d-/J	.
12c/L	.
12e-/	.
12g/J	.
8a-/L	.
[8e-/J	.
4e-/]}	.
=25	=25
2r	2B-:min
4r	2E-:dom
8r	.
*>solo1	*>solo2
{8b\	.
=26	=26	!!Chorus 2
4cc\	1A-:dom
4ee-\	.
4gg\	.
8aa-\L	.
8ee-\J}	.
=27||	=27||
4r	1A-:dom
8r	.
{8cc\	.
8dd-\L	.
16ee-\L	.
16dd-\J	.
8cc\	.
8b-\J	.
=28	=28
8a-/L	1A-:dom
8g-/	.
8e-/	.
8B-/J	.
8d-/L	.
8Bn/	.
8c/	.
[8f/J	.
=29	=29
4f/]	1A-:dom
24a-/LL	.
24b-/	.
24a-/JJ	.
8g-/	.
8e/L	.
8c/	.
8B-/	.
8A/J	.
=30	=30
8A-/L	1D-:dom
8G-/J	.
16F/LL	.
16A-/	.
16c/	.
16e-/JJ	.
8d-/L	.
8A-/	.
8B-/	.
[8Bn/J	.
=31	=31
4B/]}	1D-:dom
4r	.
{12g/L	.
12a-/	.
12an/J	.
8b-/L	.
8g/J	.
=32	=32
8a-/L	1A-:dom
8f/	.
8d-/	.
8B/J	.
8c/L	.
[8e-/J	.
4e-/]}	.
=33	=33
2r	2C:min
2r	2F:dom
=34	=34
8r	1B-:min
{16B-/LL	.
16c/JJ	.
16f/LL	.
16a-/	.
16cc/	.
16ee-/JJ	.
8dd-\	.
8r	.
8r	.
[8cc\	.
=35	=35
24cc\LL]1E-:dom	.
24dd-\	.
24cc\JJ	.
8b-/L	.
8a-/	.
8f/J	.
8d-/L	.
8c/	.
8B-/	.
8A-/J	.
=36	=36
16G/LL	1A-:dom
16B-/	.
16d-/	.
16e/J	.
8e-/	.
8c/J	.
8d-/L	.
[8e-/J	.
4e-/]}	.
=37	=37
2r	2B-:dom
4r	2E-:dom
8r	.
*>solo3	*>solo3
{[8a-/	.
=38	=38	!!Chorus 3
8a-/]	1A-:dom
4cc\	.
8ff\	.
4ee-\	.
4ff\	.
=39||	=39||
4a-/	1D-:dom
8ff\L	.
8ff\J	.
4ee-\	.
8ff\L	.
[8b\J	.
=40	=40
8b\L]	1A-:dom
8cc\	.
8ee-\	.
8cc\J	.
8dd-\L	.
16ee-\L	.
16dd-\J	.
8cc\	.
8b-\J	.
=41	=41
8a-/L	2E-:dom
8g-/	.
8e-/	.
8B-/J	.
8d-/L	2A-:dom
8Bn/	.
8c/	.
16a-/L	.
16g-/JJ	.
=42	=42
8f/L	1D-:dom
8A-/	.
8B-/	.
[8Bn/J	.
4B/]}	.
4r	.
=43	=43
2r	1D-:dom
{16dd\LK	.
[8.dd-\J	.
4dd-\_	.
=44	=44
4dd-\]	1A-:dom
24cc\LL	.
24dd-\	.
24cc\JJ	.
8a-/	.
8b-/L	.
8a-/J}	.
4r	.
=45	=45
8r	2C:min
{8B/	.
12c/L	.
12e-/	.
12g/J	.
8b-/L	2F:dom
8g/	.
8a/	.
8f#/J	.
=46	=46
8d-/L	1B-:min
8B-/J	.
24a-/LL	.
24b-/	.
24a-/JJ	.
8f/	.
8d-/L	.
8c/	.
8B-/	.
8A-/J	.
=47	=47
8G/L	1D-:dom
8B-/	.
8d-/	.
8e/J	.
8e-/L	.
8d-/J	.
12c/L	.
12e-/	.
12g/J	.
=48	=48
8b-/L	1A-:dom
8a-/	.
8g/	.
8a-/J	.
8cc/L	.
[8e-/J	.
4e-/]	.
=49	=49
2r	2B-:min
8r	2E-:dom
*>solo4	*>solo4
8B/	.
12c/L	.
12e-/	.
12g/J	.
=50	=50	!!Chorus 4
4a-/	1A-:dom
8r	.
[8dd\	.
8dd\L]	.
[8dd-\	.
8dd-\]	.
8b\J	.
=51||	=51||
24b\LL	1D-:dom
24cc\	.
24b\JJ	.
8a-/L	.
8b-/	.
[8a-/J	.
8a-/]	.
4g-/	.
8f/	.
=52	=52
8e/L	1A-:dom
8B/	.
8d-/	.
8e/J	.
8e-/L	.
8d-/J	.
12c/L	.
12e-/	.
12a-/J	.
=53	=53
8b-/L	2E-:min
8g-/	.
8e-/	.
8B-/J	.
8d-/L	2A-:dom
8Bn/	.
8c/	.
[8f/J	.
=54	=54
4f/]	1D-:dom
24a-/LL	.
24b-/	.
24a-/JJ	.
8f/	.
8e-/L	.
8c/	.
8d-/	.
[8B/J	.
=55	=55
4B/]}	1D-:dom
4r	.
2r	.
=56	=56
8r	1A-:dom
{8c/	.
12g/L	.
12a-/	.
12an/J	.
8b-/L	.
8a-/J	.
16g/LL	.
16a-/	.
16b-/	.
16cc/JJ	.
=57	=57
8ee-\L	2C:min
8cc\J}	.
4r	.
2r	2F:dom
=58	=58
8r	1B-:min
{16B-/LL	.
16d-/JJ	.
16f/LL	.
16a-/	.
16cc/	.
16ee-/JJ	.
8dd-\L	.
8cc\	.
8b-\	.
8an\J	.
=59	=59
8a-/L	1E-:dom
8g-/J	.
12gn\L	.
12b-\	.
12dd-\J	.
4.gg-\	.
16ff-\LL	.
16dd-\JJ	.
=60	=60
8b/L	1A-:dom
8a/J	.
24a-/LL	.
24an/	.
24a-/JJ	.
8g-/	.
8e/L	.
8B/	.
8d-/	.
8e/J	.
=61	=61
8e-/L	2B-:min
8c/	.
8d-/	.
8B/J	.
4c/	2E-:dom
8e-/L	.
[8a-/J	.
=62	=62	!!Chorus 5
4a-/]}	1A-:dom
4r	.
*>solo5	*>solo5
{4e-/	.
4a-/	.
=63||	=63||
4.b-\	1D-:dom
[8e-/	.
4e-/]}	.
4r	.
=64	=64
{4cc\	1A-:dom
8cc\L	.
8dd-\J	.
8cc\L	.
8b\	.
8b-\	.
8a\J	.
=65	=65
8a-/L	2E-:min
8g-/	.
8e-/	.
8B-/J	.
8d-/L	2A-:dom
8Bn/	.
8c/	.
16a-/L	.
16g-/JJ	.
=66	=66
4f/}	1D-:dom
4r	.
4r	.
{16A-/LL	.
16B-/	.
16c/	.
16d-/JJ	.
=67	=67
16e-/LL	1D-:dom
16d-/	.
16c/	.
16d-/JJ	.
16f/LL	.
16a-/	.
16cc/	.
16ee-/JJ	.
4dd-\	.
8r	.
8c/	.
=68	=68
12cc\L	1A-:dom
12cc#\	.
12dd\J	.
8ee-\L	.
8ccn\J	.
8dd-\L	.
16ee-\L	.
16dd-\J	.
8cc\	.
8b-\J	.
=69	=69
8f#/L	2C:min
8g/	.
8b-/	.
8g/J	.
8a/L	2C-:min
8f#/	.
8d-/	.
8B-/J	.
=70	=70
8a-/	1B-:min
8r	.
12B-/L	.
12d-/	.
12f/J	.
8a-/L	.
8f/	.
8d-/	.
8B-/J	.
=71	=71
8a-/L	1E-:dom
[8cc/J	.
4cc\]	.
8a-/L	.
8g-/	.
8f/	.
8e/J	.
=72	=72
8e-/L	1A-:dom
8A-/	.
8d-/	.
8B-/J	.
2c/}	.
=73	=73
2r	2B-:min
8r	2E-:dom
{8e/	.
12f/L	.
12a-/	.
12cc/J	.
=74	=74
4.ee-\	1A-:dom
8cc\	.
8dd-\L	.
8ee-\J}	.
4r	.
=75||	=75||
4r	1D-:dom
{12a-/L	.
12a-/	.
12a-/J	.
8dd\L	.
[8dd-\J	.
4dd-\_	.
=76	=76
4dd-\]	1A-:dom
8b/L	.
8a-/J	.
4.cc\	.
16ee-\LL	.
16cc\JJ	.
=77	=77
8b-/L	2E-:min
8a/	.
8a-/	.
8g-/J	.
8e-/L	2A-:dom
8c/J	.
24a-/LL	.
24b-/	.
24a-/JJ	.
8g-/	.
=78	=78
8f/L	1D-:dom
8d-/	.
8B-/	.
8A-/J	.
8e-/L	.
8c/	.
8d-/	.
[8en/J	.
=79	=79
4e/]}	1D-:dom
4r	.
2r	.
=80	=80
{8cc\	1A-:dom
4ee-\	.
8ff\	.
8gg\L	.
8ff\	.
8ee-\	.
8cc\J	.
=81	=81
8g/L	2C:min
8e-/J	.
[4g-/	.
8g-/L]	2F:dom
8en/J	.
12f/L	.
12a-/	.
12cc/J	.
=82	=82
8ee-\L	1B-:min
8cc\	.
8dd-\	.
8b\J}	.
4r	.
8r	.
{24gg-\LL	.
24een\	.
24dd-\JJ	.
=83	=83
8b\L	1E-:dom
8b-\J	.
24a-/LL	.
24b-/	.
24a-/JJ	.
8f/	.
8e/L	.
8B/	.
8d-/	.
8e/J	.
=84	=84
8e-/L	1A-:dom
8d-/J	.
12c/L	.
12e-/	.
12g/J	.
8b-/L	.
8g/	.
8a-/	.
16b-/L	.
16a-/JJ	.
=85	=85
8g/L	2B-:min
8f/	.
8e-/	.
8c/J	.
8d-/L	2E-:dom
16e-/L	.
16d-/J	.
8c/	.
8B-/J	.
=86	=86
8G/L	1A-:dom
8A-/	.
8B-/	.
8G/J	.
8A-/L	.
[8E-/J	.
4E-/]}	.
==	==
*-	*-
